svg/camera_image.svg

<svg xmlns="http://www.w3.org/2000/svg" viewBox="0 0 24 24"><path d="M4 5h3l2-2h6l2 2h3a2 2 0 0 1 2 2v12a2 2 0 0 1-2 2H4a2 2 0 0 1-2-2V7a2 2 0 0 1 2-2m9.09 4.45-2.04 2.73 1.55 2.07-.87.66-2.46-3.27L6 16h12z"/></svg>

<?xml version="1.0" encoding="UTF-8"?><!DOCTYPE svg PUBLIC "-//W3C//DTD SVG 1.1//EN" "http://www.w3.org/Graphics/SVG/1.1/DTD/svg11.dtd"><svg xmlns="http://www.w3.org/2000/svg" xmlns:xlink="http://www.w3.org/1999/xlink" version="1.1" id="mdi-camera-image" width="24" height="24" viewBox="0 0 24 24"><path d="M4,5H7L9,3H15L17,5H20A2,2 0 0,1 22,7V19A2,2 0 0,1 20,21H4A2,2 0 0,1 2,19V7A2,2 0 0,1 4,5M13.09,9.45L11.05,12.18L12.6,14.25L11.73,14.91L9.27,11.64L6,16H18L13.09,9.45Z" /></svg>
